X:1
T:2 Celebremos su gloria
T:2 Celebremos su gloria
T:desconocido
C:desconocido
Z:Sonia Andrea Linares M., 1991
%%score { ( 1 3 ) | 2 }
L:1/8
Q:1/4=82
M:4/4
K:C
V:1 treble nm="Piano" snm="Pno."
V:3 treble 
V:2 bass 
V:1
 C[B,D] |"C" [CE] [CE]2 [CE]"G7" [DF][CE][DF][EG] |"C" [FA] [EG]3- [EG]2 [DF][CE] | %3
w: Ce- le-|bre- mos su glo- ria con gran|go- zo * a- la-|
w: Ce- le-|bre- mos su glo- ria in- de-|ci- ble, * e- le-|
w: Ce- le-|bre- mos su glo- ria ju- bi-|lo- sos, * Cris- to|
w: Ce- le-|bre- mos su glo- ria ex- al-|ta- da; * Je- su-|
"G7" [EG] [DF]3- [DF]2 [DF][CE] |"C" [FA]"_1""_2""_3""_4" [EG]3- [EG]2 C[B,D] | %5
w: be- mos * su gran-|de- za; * Dios e-|
w: be- mos * nues- tro|can- to; * A- do-|
w: rei- na, * so- be-|ra- no; * Por su|
w: cris- to * pron- to|vie- ne * A lle-|
 [CE] [CE]2 [CE]"G7" [DF][CE][DF][EG] |"C" [FA] [EG]3- [EG]2 [EG][FA] |"G" [GB]3 [FA] [EG]2 [DF]2 | %8
w: ter- no es to- do- po- de-|ro- so; * nues- troes-|cu- doy for- ta-|
w: re- mos con co- ra- zón sen-|si- ble * al Se-|ñor tres ve- ces|
w: gra- cia nos guí- a vic- to-|rio- sos * con su|po- de- ro- sa|
w: var- nos, suI- gle- sia trans- for-|ma- da * a la|Glo- ria pa- ra|
"C" [FA]"_4""_3""_2""_1" [EG]3- [EG]2 || [CE][CE] |"G7" [GB] [FA]3- [FA]2 [DF][DF] | %11
w: le- za. *|||
w: san- to. *|¡Ce- le-|bre- mos * ya- do-|
w: ma- no. *|||
w: siem- pre. *|||
"C" [FA] [EG]3- [EG]2 [EG][EG] |"G7" [GB] [FA]3- [FA]2 [DF][DF] |"C" [FA] [EG]3- [EG]2 [EG][EG] | %14
w: |||
w: re- mos, * a- la-|be- mos * y can-|te- mos * muy go-|
w: |||
w: |||
"F" [FA]3 [FA]"G7" [FB]2 B2 |"C" [Ec]4 [Ec]2 [Ed][Gc] |"G7" [GB]3 [FA] [EG]2 [DF]2 |"C" [CE]6 |] %18
w: ||||
w: zo- sos, oh her-|ma- nos, al Se-|ñor, a nues- tro|Dios!|
w: ||||
w: ||||
V:2
 [C,E,][C,F,] | [C,G,] [C,G,]2 [C,G,] [G,,G,][G,,G,][G,,G,][G,,B,] | %2
 [C,C] [C,C]3- [C,C]2 [C,G,][C,G,] | [G,B,] [G,B,]3- [G,B,]2 [G,B,][G,B,] | %4
 [C,C] [C,C]3- [C,C]2 [C,E,][C,F,] | [C,G,] [C,G,]2 [C,G,] [G,,G,][G,,G,][G,,G,][G,,B,] | %6
 [C,C] [C,C]3- [C,C]2 [C,C][C,C] | [G,D]3 [G,C] [G,B,]2 [G,B,]2 | [C,C] [C,C]3- [C,C]2 || %9
 [C,C][C,C] | [G,D] [G,D]3- [G,D]2 [G,B,][G,B,] | [C,C] [C,C]3- [C,C]2 [C,C][C,C] | %12
 [G,D] [G,D]3- [G,D]2 [G,B,][G,B,] | [C,C] [C,C]3- [C,C]2 [C,C][C,C] | %14
 [F,C]3 [F,C] [D,B,]2 [G,,G,]2 | [C,G,]4 [C,G,]2 [C,G,][E,C] | [G,D]3 [G,C] [G,,B,]2 [B,,G,]2 | %17
 [C,G,]6 |] %18
V:3
 x2 | x8 | x8 | x8 | x8 | x8 | x8 | x8 | x6 || x2 | x8 | x8 | x8 | x8 | x6 GF | x8 | x8 | x6 |] %18

